usr/share/icons/biglinux-icons-material/16/actions/remove-color.svg

<svg width="16" height="16" version="1.0" xmlns="http://www.w3.org/2000/svg">
 <path d="m0 0v1.125l6.875 6.875-6.875 6.875v1.125h1.125l6.875-6.875 6.875 6.875h1.125v-1.125l-6.875-6.875 6.875-6.875v-1.125h-1.125l-6.875 6.875-6.875-6.875h-1.125z" color="#000000" fill="#363636" style="text-decoration-line:none;text-indent:0;text-transform:none"/>
</svg>

<svg xmlns="http://www.w3.org/2000/svg" width="16" height="16" version="1.0"><path fill="#dedede" d="M0 0v1.125L6.875 8 0 14.875V16h1.125L8 9.125 14.875 16H16v-1.125L9.125 8 16 1.125V0h-1.125L8 6.875 1.125 0H0z" color="#000" style="text-decoration-line:none;text-indent:0;text-transform:none"/></svg>
